public/img/icons/openid.svg

<?xml version="1.0" encoding="UTF-8" standalone="no"?>
<!-- Created with Inkscape (http://www.inkscape.org/) -->

<svg
   xmlns:dc="http://purl.org/dc/elements/1.1/"
   xmlns:cc="http://creativecommons.org/ns#"
   xmlns:rdf="http://www.w3.org/1999/02/22-rdf-syntax-ns#"
   xmlns:svg="http://www.w3.org/2000/svg"
   xmlns="http://www.w3.org/2000/svg"
   xmlns:sodipodi="http://sodipodi.sourceforge.net/DTD/sodipodi-0.dtd"
   xmlns:inkscape="http://www.inkscape.org/namespaces/inkscape"
   id="svg2995"
   version="1.1"
   inkscape:version="0.48.3.1 r9886"
   width="56.689999"
   height="56.689999"
   sodipodi:docname="openid.svg">
  <metadata
     id="metadata3001">
    <rdf:RDF>
      <cc:Work
         rdf:about="">
        <dc:format>image/svg+xml</dc:format>
        <dc:type
           rdf:resource="http://purl.org/dc/dcmitype/StillImage" />
        <dc:title />
      </cc:Work>
    </rdf:RDF>
  </metadata>
  <defs
     id="defs2999" />
  <sodipodi:namedview
     pagecolor="#ffffff"
     bordercolor="#666666"
     borderopacity="1"
     objecttolerance="10"
     gridtolerance="10"
     guidetolerance="10"
     inkscape:pageopacity="0"
     inkscape:pageshadow="2"
     inkscape:window-width="882"
     inkscape:window-height="752"
     id="namedview2997"
     showgrid="false"
     showguides="true"
     inkscape:guide-bbox="true"
     inkscape:zoom="4"
     inkscape:cx="15.135353"
     inkscape:cy="37.327984"
     inkscape:window-x="924"
     inkscape:window-y="95"
     inkscape:window-maximized="0"
     inkscape:current-layer="svg2995" />
  <path
     style="fill:#ffffff;fill-opacity:1;stroke:none"
     d="m 0,0.00249863 0,56.68750037 56.688,0 0,-56.68750037 z M 28.344,7.1587486 c 13.599119,0 22.6252,9.0270004 22.6252,22.6250004 0,13.599999 -9.025081,22.625 -22.6252,22.625 -13.60112,0 -22.6251996,-9.025001 -22.6251996,-22.625 0,-13.598 9.0250796,-22.6250004 22.6251996,-22.6250004 z"
     id="rect2986"
     inkscape:connector-curvature="0"
     sodipodi:nodetypes="cccccsssss" />
  <path
     d="m 28.344999,3.7199993 c -13.6,0 -24.6249997,11.0249997 -24.6249997,24.6249997 0,13.602 11.0249997,24.625 24.6249997,24.625 13.6,0 24.625,-11.023 24.625,-24.625 0,-13.6 -11.026,-24.6249997 -24.625,-24.6249997 z m 3.65625,8.8437497 c 0,0 0.125,22.193092 0.125,29.09375 -1.940901,0.902967 -2.342054,1.148937 -5.90625,2.46875 -14.779135,0 -24.3878997,-17.0292 -2.09375,-21.84375 l -0.03125,4.21875 c -5.125185,0.09611 -7.831608,3.806984 -7.75,6.90625 0.08222,3.122326 4.584923,6.801497 9.84375,7.03125 l 0,-25.46875 5.8125,-2.40625 z m 4.0625,9.59375 5.59375,3.3125 3.34375,-2.4375 0.75,8.0625 -10.53125,-0.78125 3.1875,-2.84375 -4,-1.1875 0,-4.0625 1.65625,-0.0625 z"
     id="path2987"
     inkscape:connector-curvature="0" />
</svg>

<?xml version="1.0" encoding="utf-8"?>
<!-- Generator: Adobe Illustrator 16.0.4, SVG Export Plug-In . SVG Version: 6.00 Build 0)  -->
<!DOCTYPE svg PUBLIC "-//W3C//DTD SVG 1.1//EN" "http://www.w3.org/Graphics/SVG/1.1/DTD/svg11.dtd">
<svg version="1.1"
	 id="svg2995" xmlns:dc="http://purl.org/dc/elements/1.1/" xmlns:cc="http://creativecommons.org/ns#" xmlns:rdf="http://www.w3.org/1999/02/22-rdf-syntax-ns#" xmlns:svg="http://www.w3.org/2000/svg" xmlns:sodipodi="http://sodipodi.sourceforge.net/DTD/sodipodi-0.dtd" xmlns:inkscape="http://www.inkscape.org/namespaces/inkscape" sodipodi:docname="openid.svg" inkscape:version="0.48.3.1 r9886"
	 xmlns="http://www.w3.org/2000/svg" xmlns:xlink="http://www.w3.org/1999/xlink" x="0px" y="0px" width="56.689px"
	 height="56.689px" viewBox="0 0 56.689 56.689" enable-background="new 0 0 56.689 56.689" xml:space="preserve">
<sodipodi:namedview  inkscape:cy="37.327984" inkscape:cx="15.135353" inkscape:zoom="4" showguides="true" showgrid="false" guidetolerance="10" gridtolerance="10" objecttolerance="10" borderopacity="1" pagecolor="#ffffff" bordercolor="#666666" id="namedview2997" inkscape:current-layer="svg2995" inkscape:window-maximized="0" inkscape:window-y="95" inkscape:window-x="924" inkscape:guide-bbox="true" inkscape:window-height="752" inkscape:window-width="882" inkscape:pageshadow="2" inkscape:pageopacity="0">
	</sodipodi:namedview>
<path id="rect2986" sodipodi:nodetypes="cccccsssss" inkscape:connector-curvature="0" fill="#FFFFFF" d="M0,0.002V56.69h56.688
	V0.002H0z M28.344,7.158c13.6,0,22.625,9.027,22.625,22.625c0,13.601-9.024,22.625-22.625,22.625
	c-13.602,0-22.625-9.024-22.625-22.625C5.719,16.186,14.743,7.158,28.344,7.158z"/>
<path id="path2987" inkscape:connector-curvature="0" fill="#252525" d="M28.345,3.72c-13.6,0-24.625,11.025-24.625,24.625
	c0,13.602,11.025,24.625,24.625,24.625S52.97,41.947,52.97,28.345C52.97,14.745,41.944,3.72,28.345,3.72z M32.001,12.564
	c0,0,0.125,22.193,0.125,29.094c-1.94,0.903-2.342,1.149-5.906,2.469c-14.779,0-24.388-17.029-2.094-21.844l-0.031,4.219
	c-5.125,0.096-7.832,3.807-7.75,6.906c0.082,3.122,4.585,6.802,9.844,7.031V14.97L32.001,12.564z M36.064,22.157l5.594,3.312
	l3.344-2.438l0.75,8.062L35.22,30.314l3.188-2.844l-4-1.188V22.22L36.064,22.157z"/>
</svg>
